Yaru++/apps/scalable/insomnia.svg

<svg enable-background="new" height="256" viewBox="0 0 256 256" width="256" xmlns="http://www.w3.org/2000/svg" xmlns:xlink="http://www.w3.org/1999/xlink">
  <linearGradient id="linearGradient11065" gradientUnits="userSpaceOnUse" x1="80.751994" x2="176.751994" y1="11.248002" y2="235.248002">
    <stop offset="0" stop-color="#fff"/>
    <stop offset="1" stop-color="#e4e4e4"/>
  </linearGradient>
  <filter id="filter11191" color-interpolation-filters="sRGB" height="1.024" width="1.024" x="-.01" y="-.01">
    <feGaussianBlur stdDeviation="1.12"/>
  </filter>
  <filter id="filter11210" color-interpolation-filters="sRGB" height="1.096" width="1.096" x="-.05" y="-.05">
    <feGaussianBlur stdDeviation="4.48"/>
  </filter>
  <circle cx="128.752" cy="127.248" filter="url(#filter11210)" opacity=".3" r="112"/>
  <circle cx="128.752" cy="125.248" filter="url(#filter11191)" opacity=".1" r="112"/>
  <circle cx="128.752" cy="123.248" opacity=".1" r="114"/>
  <circle cx="128.752" cy="123.248" fill="url(#linearGradient11065)" r="112"/>
  <path d="m128.752 11.248002a112 112 0 0 0 -112.000006 111.999998 112 112 0 0 0 .04102 1.16992 112 112 0 0 1 111.958986-111.169918 112 112 0 0 1 111.95898 110.830078 112 112 0 0 0 .041-.83008 112 112 0 0 0 -112-111.999998z" fill="#fff" opacity=".3"/>
  <path d="m128.752 235.248a112 112 0 0 1 -112.000006-112 112 112 0 0 1 .04102-1.16992 112 112 0 0 0 111.958986 111.16992 112 112 0 0 0 111.95898-110.83008 112 112 0 0 1 .041.83008 112 112 0 0 1 -112 112z" opacity=".2"/>
  <g stroke-width="1.212121">
    <path d="m128.752 23.248014c-9.95928.03241-19.8578 1.552592-29.367911 4.509944 17.863081 8.092111 29.346481 25.879574 29.367911 45.490063 0 27.614239-22.38578 49.999999-50.000001 49.999999-19.65885-.0226-37.48015-11.563-45.54333-29.492184-2.95156 9.552654-4.45382 19.493944-4.45667 29.492184 0 55.22849 44.77152 99.99997 100.000001 99.99997 55.22848 0 100-44.77148 100-99.99997 0-55.22848-44.77152-100.000006-100-100.000006z" fill="#234db8"/>
    <path d="m101.94336 27.015625c-.85452.240958-1.71003.478309-2.558594.742187 17.517914 7.935748 28.892154 25.197839 29.345704 44.357422.00495-.289741.02148-.576265.02148-.867187-.02038-18.655308-10.41826-35.653753-26.80859-44.232422zm126.79492 95.232425c-.53774 54.76688-45.09232 99-99.98633 99-54.827381 0-99.340585-44.12597-99.984372-98.80078-.002216.26707-.015549.53362-.015625.80078 0 55.22849 44.771519 100 99.999997 100 55.22848 0 100-44.77151 100-100 0-.33422-.0104-.66656-.01367-1z" fill="#111212" opacity=".2"/>
    <path d="m128.75195 23.248047c-9.95928.03241-19.85707 1.552414-29.367184 4.509765.870064.394148 1.719384.818572 2.558594 1.257813 8.7223-2.45952 17.73796-3.73806 26.80859-3.767578 54.89427 0 99.44899 44.232779 99.98633 99.000003.00328-.3337.01367-.66553.01367-1 0-55.228483-44.77152-100.000003-100-100.000003zm-.02148 50.867187c-.46483 27.212426-22.65522 49.132816-49.978517 49.132816-19.65885-.0226-37.479789-11.56301-45.542969-29.492191-2.95156 9.552651-4.454181 19.493951-4.457031 29.492191 0 .40109.010915.79923.015625 1.19922.080728-9.72789 1.568714-19.39401 4.441406-28.691411 8.06318 17.929181 25.884119 29.469591 45.542969 29.492191 27.614217 0 49.999997-22.38576 49.999997-50.000003-.00041-.378933-.01254-.755298-.02148-1.132813z" fill="#fff" opacity=".3"/>
  </g>
</svg>

<?xml version="1.0" encoding="UTF-8" standalone="no"?>
<svg
   xmlns:dc="http://purl.org/dc/elements/1.1/"
   xmlns:cc="http://creativecommons.org/ns#"
   xmlns:rdf="http://www.w3.org/1999/02/22-rdf-syntax-ns#"
   xmlns:svg="http://www.w3.org/2000/svg"
   xmlns="http://www.w3.org/2000/svg"
   xmlns:xlink="http://www.w3.org/1999/xlink"
   xmlns:sodipodi="http://sodipodi.sourceforge.net/DTD/sodipodi-0.dtd"
   xmlns:inkscape="http://www.inkscape.org/namespaces/inkscape"
   style="enable-background:new"
   width="256"
   height="256"
   version="1.0"
   viewBox="0 0 256 256"
   id="svg114"
   sodipodi:docname="insomnia.svg"
   inkscape:version="0.92.3 (2405546, 2018-03-11)">
  <metadata
     id="metadata118">
    <rdf:RDF>
      <cc:Work
         rdf:about="">
        <dc:format>image/svg+xml</dc:format>
        <dc:type
           rdf:resource="http://purl.org/dc/dcmitype/StillImage" />
        <dc:title>
  Adwaita Icon Template
 </dc:title>
      </cc:Work>
    </rdf:RDF>
  </metadata>
  <sodipodi:namedview
     pagecolor="#ffffff"
     bordercolor="#666666"
     borderopacity="1"
     objecttolerance="10"
     gridtolerance="10"
     guidetolerance="10"
     inkscape:pageopacity="0"
     inkscape:pageshadow="2"
     inkscape:window-width="1920"
     inkscape:window-height="1009"
     id="namedview116"
     showgrid="false"
     inkscape:zoom="3.4011667"
     inkscape:cx="128.30399"
     inkscape:cy="129.2"
     inkscape:window-x="0"
     inkscape:window-y="34"
     inkscape:window-maximized="1"
     inkscape:current-layer="svg114" />
  <title
     id="title4162">
  Adwaita Icon Template
 </title>
  <defs
     id="defs80">
    <linearGradient
       id="linearGradient1062">
      <stop
         style="stop-color:#cee2f8"
         id="stop1056"
         offset="0" />
      <stop
         id="stop1058"
         offset=".552"
         style="stop-color:#98c1f1" />
      <stop
         style="stop-color:#62a0ea"
         id="stop1060"
         offset="1" />
    </linearGradient>
    <linearGradient
       id="linearGradient1137">
      <stop
         id="stop1133"
         offset="0"
         style="stop-color:#62a0ea" />
      <stop
         style="stop-color:#3584e4"
         id="stop1139"
         offset=".552" />
      <stop
         id="stop1135"
         offset="1"
         style="stop-color:#1a5fb4" />
    </linearGradient>
    <linearGradient
       id="linearGradient1494">
      <stop
         style="stop-color:#babdb6"
         id="stop1490"
         offset="0" />
      <stop
         style="stop-color:#babdb6;stop-opacity:0"
         id="stop1492"
         offset="1" />
    </linearGradient>
    <linearGradient
       id="linearGradient1496"
       x1="280"
       x2="280"
       y1="172"
       y2="20"
       gradientUnits="userSpaceOnUse"
       xlink:href="#linearGradient1494" />
    <clipPath
       id="clipPath1113"
       clipPathUnits="userSpaceOnUse">
      <circle
         style="fill:#3584e4"
         cx="64"
         cy="236"
         r="52"
         id="circle15" />
    </clipPath>
    <clipPath
       id="clipPath987"
       clipPathUnits="userSpaceOnUse">
      <circle
         style="fill:#3584e4"
         cx="64"
         cy="236"
         r="60"
         id="circle18" />
    </clipPath>
    <clipPath
       id="clipPath1106"
       clipPathUnits="userSpaceOnUse">
      <g
         style="fill:#f5c211;enable-background:new"
         transform="matrix(0.26785714,0,0,0.26785714,-4.57143,224.21429)"
         id="g25">
        <circle
           style="fill:#f5c211"
           cx="256"
           cy="44"
           r="224"
           id="circle21" />
        <circle
           style="fill:#f5c211"
           cx="256"
           cy="44"
           r="224"
           id="circle23" />
      </g>
    </clipPath>
    <radialGradient
       id="radialGradient1131"
       cx="256"
       cy="-46.416"
       r="224"
       fx="256"
       fy="-46.416"
       gradientTransform="matrix(0.29047955,0,0,0.29906611,-10.362771,225.88164)"
       gradientUnits="userSpaceOnUse"
       xlink:href="#linearGradient1137" />
    <radialGradient
       id="radialGradient1054"
       cx="46.511"
       cy="236.83"
       r="224"
       fx="46.511"
       fy="236.83"
       gradientTransform="matrix(0.29041272,-7.8944831e-4,6.6501927e-4,0.24463927,50.335165,156.09876)"
       gradientUnits="userSpaceOnUse"
       xlink:href="#linearGradient1062" />
    <linearGradient
       id="linearGradient8215">
      <stop
         style="stop-color:#ffffff"
         id="stop8211"
         offset="0" />
      <stop
         style="stop-color:#e4e4e4"
         id="stop8213"
         offset="1" />
    </linearGradient>
    <radialGradient
       id="radialGradient4851-7-7"
       cx="17.814"
       cy="24.149"
       r="9.125"
       fx="17.814"
       fy="24.149"
       gradientTransform="matrix(7.4290395,0,-8.2510486e-8,7.1212043,-87.91303,55.751587)"
       gradientUnits="userSpaceOnUse"
       xlink:href="#linearGradient8215" />
    <radialGradient
       id="radialGradient1054-8"
       cx="46.511"
       cy="236.83"
       r="224"
       fx="46.511"
       fy="236.83"
       gradientTransform="matrix(0.29041272,-7.8944831e-4,6.6501927e-4,0.24463927,50.335165,156.09876)"
       gradientUnits="userSpaceOnUse"
       xlink:href="#linearGradient1062" />
    <clipPath
       id="clipPath987-1"
       clipPathUnits="userSpaceOnUse">
      <circle
         style="fill:#3584e4"
         cx="64"
         cy="236"
         r="60"
         id="circle35" />
    </clipPath>
    <radialGradient
       id="radialGradient1054-3"
       cx="46.511"
       cy="236.83"
       r="224"
       fx="46.511"
       fy="236.83"
       gradientTransform="matrix(0.29041272,-7.8944831e-4,6.6501927e-4,0.24463927,50.335165,156.09876)"
       gradientUnits="userSpaceOnUse"
       xlink:href="#linearGradient1062" />
    <clipPath
       id="clipPath987-3"
       clipPathUnits="userSpaceOnUse">
      <circle
         style="fill:#3584e4"
         cx="64"
         cy="236"
         r="60"
         id="circle39" />
    </clipPath>
    <radialGradient
       id="radialGradient1096"
       cx="64.071"
       cy="59.883"
       r="59.798"
       fx="64.071"
       fy="59.883"
       gradientTransform="matrix(1,0,0,0.96644296,0,2.0094886)"
       gradientUnits="userSpaceOnUse"
       xlink:href="#linearGradient1062" />
    <clipPath
       id="clipPath1106-9"
       clipPathUnits="userSpaceOnUse">
      <g
         style="fill:#f5c211;enable-background:new"
         transform="matrix(0.26785714,0,0,0.26785714,-4.57143,224.21429)"
         id="g47">
        <circle
           style="fill:#f5c211"
           cx="256"
           cy="44"
           r="224"
           id="circle43" />
        <circle
           style="fill:#f5c211"
           cx="256"
           cy="44"
           r="224"
           id="circle45" />
      </g>
    </clipPath>
    <clipPath
       id="clipPath1106-5"
       clipPathUnits="userSpaceOnUse">
      <g
         style="fill:#f5c211;enable-background:new"
         transform="matrix(0.26785714,0,0,0.26785714,-4.57143,224.21429)"
         id="g54">
        <circle
           style="fill:#f5c211"
           cx="256"
           cy="44"
           r="224"
           id="circle50" />
        <circle
           style="fill:#f5c211"
           cx="256"
           cy="44"
           r="224"
           id="circle52" />
      </g>
    </clipPath>
    <clipPath
       id="clipPath987-5"
       clipPathUnits="userSpaceOnUse">
      <circle
         style="fill:#3584e4"
         cx="64"
         cy="236"
         r="60"
         id="circle57" />
    </clipPath>
    <filter
       style="color-interpolation-filters:sRGB"
       id="filter1114"
       width="1.072"
       height="1.072"
       x="-.04"
       y="-.04">
      <feGaussianBlur
         id="feGaussianBlur1116"
         stdDeviation="1.2" />
    </filter>
    <linearGradient
       id="linearGradient1073"
       x1="152"
       x2="152"
       y1="236"
       y2="76"
       gradientTransform="translate(-23.248003,-30.751988)"
       gradientUnits="userSpaceOnUse"
       xlink:href="#linearGradient4245" />
    <linearGradient
       id="linearGradient4245">
      <stop
         style="stop-color:#000000;stop-opacity:0"
         id="stop4247"
         offset="0" />
      <stop
         id="stop4253"
         offset=".515"
         style="stop-color:#000000" />
      <stop
         style="stop-color:#000000;stop-opacity:0"
         id="stop4249"
         offset="1" />
    </linearGradient>
    <filter
       style="color-interpolation-filters:sRGB"
       id="filter1086"
       width="1.24"
       height="1.24"
       x="-.12"
       y="-.12">
      <feGaussianBlur
         id="feGaussianBlur1088"
         stdDeviation="7.2" />
    </filter>
    <filter
       style="color-interpolation-filters:sRGB"
       id="filter1108"
       width="1.024"
       height="1.024"
       x="-.01"
       y="-.01">
      <feGaussianBlur
         id="feGaussianBlur1110"
         stdDeviation=".72" />
    </filter>
    <linearGradient
       id="linearGradient11065"
       x1="104"
       x2="200"
       y1="44"
       y2="268"
       gradientTransform="translate(-23.248006,-32.751998)"
       gradientUnits="userSpaceOnUse"
       xlink:href="#linearGradient8215" />
    <linearGradient
       id="linearGradient4195-3">
      <stop
         style="stop-color:#325fd1"
         id="stop4197-6"
         offset="0" />
      <stop
         style="stop-color:#6e98ff"
         id="stop4199-7"
         offset="1" />
    </linearGradient>
    <filter
       style="color-interpolation-filters:sRGB"
       id="filter11191"
       width="1.024"
       height="1.024"
       x="-.01"
       y="-.01">
      <feGaussianBlur
         id="feGaussianBlur11193"
         stdDeviation="1.12" />
    </filter>
    <filter
       style="color-interpolation-filters:sRGB"
       id="filter11210"
       width="1.096"
       height="1.096"
       x="-.05"
       y="-.05">
      <feGaussianBlur
         id="feGaussianBlur11212"
         stdDeviation="4.48" />
    </filter>
    <linearGradient
       id="linearGradient1000"
       x1="152"
       x2="152"
       y1="236"
       y2="76"
       gradientTransform="translate(-23.248003,-30.751988)"
       gradientUnits="userSpaceOnUse"
       xlink:href="#linearGradient4245" />
  </defs>
  <circle
     style="opacity:0.3;filter:url(#filter11210)"
     cx="128.752"
     cy="127.248"
     r="112"
     id="circle82" />
  <circle
     style="opacity:0.1;filter:url(#filter11191)"
     cx="128.752"
     cy="125.248"
     r="112"
     id="circle84" />
  <circle
     style="opacity:0.1"
     cx="128.752"
     cy="123.248"
     r="114"
     id="circle86" />
  <circle
     style="fill:url(#linearGradient11065);fill-opacity:1.0"
     cx="128.752"
     cy="123.248"
     r="112"
     id="circle88" />
  <path
     style="opacity:0.3;fill:#ffffff"
     d="M 128.752,11.248002 A 112,112 0 0 0 16.751994,123.248 112,112 0 0 0 16.793014,124.41792 112,112 0 0 1 128.752,13.248002 112,112 0 0 1 240.71098,124.07808 a 112,112 0 0 0 0.041,-0.83008 112,112 0 0 0 -112,-111.999998 z"
     id="path110" />
  <path
     style="opacity:0.2"
     d="m 128.752,235.248 a 112,112 0 0 1 -112.000006,-112 112,112 0 0 1 0.04102,-1.16992 A 112,112 0 0 0 128.752,233.248 112,112 0 0 0 240.71098,122.41792 a 112,112 0 0 1 0.041,0.83008 112,112 0 0 1 -112,112 z"
     id="path112" />
  <path
     d="m 128.752,23.248014 c -9.95928,0.03241 -19.8578,1.552592 -29.367911,4.509944 17.863081,8.092111 29.346481,25.879574 29.367911,45.490063 0,27.614239 -22.38578,49.999999 -50.000001,49.999999 -19.65885,-0.0226 -37.48015,-11.563 -45.54333,-29.492184 -2.95156,9.552654 -4.45382,19.493944 -4.45667,29.492184 0,55.22849 44.77152,99.99997 100.000001,99.99997 55.22848,0 100,-44.77148 100,-99.99997 0,-55.22848 -44.77152,-100.000006 -100,-100.000006 z"
     id="path953"
     style="isolation:isolate;fill:#234db8;fill-opacity:1;stroke-width:1.21212113;enable-background:new"
     inkscape:connector-curvature="0" />
  <g
     style="enable-background:new"
     id="g888"
     transform="translate(-332.56727,100.84378)" />
  <path
     style="isolation:isolate;fill:#111212;fill-opacity:1;stroke-width:1.21212113;enable-background:new;opacity:0.2"
     d="M 101.94336 27.015625 C 101.08884 27.256583 100.23333 27.493934 99.384766 27.757812 C 116.90268 35.69356 128.27692 52.955651 128.73047 72.115234 C 128.73542 71.825493 128.75195 71.538969 128.75195 71.248047 C 128.73157 52.592739 118.33369 35.594294 101.94336 27.015625 z M 228.73828 122.24805 C 228.20054 177.01493 183.64596 221.24805 128.75195 221.24805 C 73.924569 221.24805 29.411365 177.12208 28.767578 122.44727 C 28.765362 122.71434 28.752029 122.98089 28.751953 123.24805 C 28.751953 178.47654 73.523472 223.24805 128.75195 223.24805 C 183.98043 223.24805 228.75195 178.47654 228.75195 123.24805 C 228.75195 122.91383 228.74155 122.58149 228.73828 122.24805 z "
     id="path980" />
  <path
     style="isolation:isolate;fill:#ffffff;fill-opacity:1;stroke-width:1.21212113;enable-background:new;opacity:0.3"
     d="M 128.75195 23.248047 C 118.79267 23.280457 108.89488 24.800461 99.384766 27.757812 C 100.25483 28.15196 101.10415 28.576384 101.94336 29.015625 C 110.66566 26.556105 119.68132 25.277565 128.75195 25.248047 C 183.64622 25.248047 228.20094 69.480826 228.73828 124.24805 C 228.74156 123.91435 228.75195 123.58252 228.75195 123.24805 C 228.75195 68.019567 183.98043 23.248047 128.75195 23.248047 z M 128.73047 74.115234 C 128.26564 101.32766 106.07525 123.24805 78.751953 123.24805 C 59.093103 123.22545 41.272164 111.68504 33.208984 93.755859 C 30.257424 103.30851 28.754803 113.24981 28.751953 123.24805 C 28.751953 123.64914 28.762868 124.04728 28.767578 124.44727 C 28.848306 114.71938 30.336292 105.05326 33.208984 95.755859 C 41.272164 113.68504 59.093103 125.22545 78.751953 125.24805 C 106.36617 125.24805 128.75195 102.86229 128.75195 75.248047 C 128.75154 74.869114 128.73941 74.492749 128.73047 74.115234 z "
     id="path984" />
</svg>
